dist/img/icons/activity/applause.svg

<svg width="22" height="23" viewBox="0 0 22 23" fill="none" xmlns="http://www.w3.org/2000/svg">
<g clip-path="url(#clip0_74:5740)">
<path d="M14.584 3.17944L15.8758 0.512902L17.0372 1.07553L15.7454 3.74207L14.584 3.17944Z" fill="#A7B0BC"/>
<path d="M18.7715 6.76294L21.438 5.47115L22.0007 6.63258L19.3341 7.92437L18.7715 6.76294Z" fill="#A7B0BC"/>
<path d="M16.9258 4.67175L19.0546 2.54289L19.967 3.4552L17.8381 5.58406L16.9258 4.67175Z" fill="#A7B0BC"/>
<path d="M16.4882 13.048C17.0629 12.0968 16.6901 10.7693 15.6592 10.3027C16.9297 8.7798 15.4335 6.71919 13.7357 7.15962C13.5996 6.64958 13.2038 6.18307 12.721 5.95847L12.9645 5.71493C14.4212 4.20384 12.9253 1.99125 11.1549 2.44341C10.7746 1.04555 8.94414 0.58218 7.93463 1.62026C7.87959 1.68261 5.55953 3.99003 4.92484 4.63001C4.43023 3.5166 3.31377 2.73809 2.01895 2.73809H1.32544V8.23951C-0.514614 10.2026 -0.427689 13.5289 1.51682 15.3961C1.6593 15.5352 2.43519 16.3239 2.57174 16.4406C2.57402 17.8267 3.11569 19.1305 4.09752 20.1122L4.95157 20.9663C5.93435 21.9492 7.2415 22.4901 8.63202 22.4892C10.0223 22.4884 11.3297 21.9463 12.3132 20.9627L17.0636 16.2123C18.0304 15.2629 17.7315 13.5691 16.4882 13.048ZM1.28126 11.7186C1.27276 10.5809 1.77811 9.52651 2.61579 8.76407V4.12525C3.36478 4.37559 3.90618 5.08372 3.90618 5.91585V7.47076L5.00704 6.37265C5.02466 6.35589 8.82456 2.55453 8.84647 2.53326C8.97108 2.40852 9.13733 2.34111 9.31311 2.3436C9.89078 2.3497 10.153 3.05525 9.73988 3.4647L6.73103 6.47358L7.64339 7.38611C7.77771 7.25183 10.8767 4.15379 11.1474 3.88218C11.7959 3.27473 12.6659 4.16152 12.0426 4.81189C10.6235 6.23055 9.01891 7.83127 7.50546 9.34617C7.01085 8.23272 5.89439 7.47072 4.59957 7.47072H3.90618L3.90614 12.9558C3.4025 13.5142 3.03233 14.1639 2.81121 14.8658C1.85524 13.991 1.29059 13.0425 1.28126 11.7186ZM16.1512 15.3L11.4007 20.0504C10.6602 20.7909 9.67564 21.1989 8.62901 21.1989C7.58426 21.1989 6.60234 20.7923 5.86401 20.054L5.00996 19.1999C3.40212 17.6173 3.511 14.9639 5.19662 13.4803V8.84142C5.94561 9.09175 6.48701 9.79988 6.48701 10.6321L6.48719 12.1912C7.4426 11.2334 11.4574 7.22205 11.4574 7.22205C11.7063 6.99264 12.1256 7.01026 12.3537 7.26176C12.5913 7.51278 12.5765 7.92511 12.3207 8.1809C11.6357 8.86518 9.29717 11.2046 8.91067 11.5909L9.82375 12.5027C10.7039 11.6223 13.2803 9.04694 13.7282 8.59834C14.3768 7.99111 15.2466 8.87768 14.6233 9.5281L10.7362 13.4153L11.6486 14.3278L14.3767 11.5997C14.5014 11.4749 14.6669 11.4076 14.8434 11.41C15.4212 11.4161 15.6832 12.1217 15.2702 12.5311L12.5611 15.2402L13.4736 16.1526C13.4736 16.1523 15.2587 14.3675 15.259 14.3672C15.9004 13.7801 16.752 14.6617 16.1512 15.3Z" fill="#A7B0BC"/>
</g>
<defs>
<clipPath id="clip0_74:5740">
<rect width="22" height="22" fill="white" transform="translate(0 0.5)"/>
</clipPath>
</defs>
</svg>

<svg width="22" height="23" fill="none" xmlns="http://www.w3.org/2000/svg"><g clip-path="url(#clip0_74:5740)" fill="#A7B0BC"><path d="M14.584 3.18L15.876.512l1.161.563-1.292 2.666-1.161-.563zm4.187 3.583l2.667-1.292.563 1.162-2.667 1.291-.563-1.161zm-1.845-2.091l2.129-2.13.912.913-2.129 2.13-.912-.913zm-.438 8.376c.575-.951.202-2.279-.829-2.745 1.27-1.523-.226-3.584-1.923-3.143a1.92 1.92 0 00-1.015-1.202l.243-.243c1.457-1.511-.039-3.724-1.81-3.272-.38-1.397-2.21-1.86-3.22-.823-.054.063-2.374 2.37-3.01 3.01A3.182 3.182 0 002.02 2.738h-.694V8.24c-1.84 1.963-1.753 5.289.192 7.156.142.14.918.928 1.055 1.045a5.171 5.171 0 001.526 3.671l.854.854a5.165 5.165 0 003.68 1.523c1.39 0 2.698-.543 3.681-1.526l4.75-4.75c.967-.95.669-2.644-.575-3.165zm-15.207-1.33c-.008-1.137.497-2.191 1.335-2.954V4.125a1.89 1.89 0 011.29 1.79v1.556l1.101-1.098 3.84-3.84a.642.642 0 01.466-.19c.578.007.84.712.427 1.122L6.73 6.474l.912.912c.135-.134 3.234-3.232 3.504-3.504.649-.607 1.519.28.896.93L7.505 9.346A3.168 3.168 0 004.6 7.471h-.694v5.485a5.164 5.164 0 00-1.095 1.91c-.956-.875-1.52-1.823-1.53-3.147zm14.87 3.582l-4.75 4.75a3.895 3.895 0 01-2.772 1.15 3.885 3.885 0 01-2.765-1.145L5.01 19.2c-1.608-1.583-1.499-4.236.187-5.72V8.841a1.89 1.89 0 011.29 1.791v1.56c.956-.959 4.97-4.97 4.97-4.97a.648.648 0 01.897.04c.237.25.223.663-.033.919l-3.41 3.41.913.912 3.904-3.905c.649-.607 1.519.28.895.93l-3.887 3.887.913.913 2.728-2.728a.642.642 0 01.466-.19c.578.006.84.712.427 1.121l-2.709 2.71.913.912 1.785-1.786c.641-.587 1.493.295.892.933z"/></g><defs><clipPath id="clip0_74:5740"><path fill="#fff" transform="translate(0 .5)" d="M0 0h22v22H0z"/></clipPath></defs></svg>
